X:1
T:El Segundo, CMD
T:El Segundo, CMD
T:Daniel Brink Towner, 1899
T:Public Domain Courtesy of the Cyber Hymnal™
C:Daniel Brink Towner, 1899
Z:Public Domain
Z:Courtesy of the Cyber Hymnal™
%%score ( 1 2 ) ( 3 4 )
L:1/8
Q:1/4=105
M:4/4
K:C
V:1 treble 
V:2 treble 
V:3 bass 
V:4 bass 
V:1
 [EG]2 [CE]>[EG] [Ec]3 [GB] | (dc) (Bc) D3 [CE] | [B,F]2 [B,D]2 [B,A]3 [B,G] | [CE]6 z [EG] | %4
 [EG]2 [CE]2 [Ec]3 [GB] | (dc) (Bc) D3 [CE] | [B,F]2 [B,D]2 (AG) (FD) | C6 z [B,D] | %8
 [B,D]2 [CE]2 [DF]3 [B,D] | [DA]2 [DG]2 [CE]3 [CE] | [B,D]2 [DG]2 [GB]3 [DA] | [DG]6 z [FG] | %12
 [EG]2 [CE]2 [Ec]3 [GB] | (dc) (Bc) D3 [CE] | [B,F]2 [B,D]2 (AG) (FD) | C6 z2 |] %16
V:2
 x8 | F2 F2 D3 x | x8 | x8 | x8 | F2 F2 D3 x | x4 B,2 B,2 | C6 x2 | x8 | x8 | x8 | x8 | x8 | %13
 F2 F2 D3 x | x4 B,2 B,2 | C6 x2 |] %16
V:3
 [C,C]2 [C,C]>[C,C] [C,G,]3 [E,G,] | [F,A,]2 [F,A,]2 [F,A,]3 [E,G,] | %2
 [D,G,]2 [B,,G,]2 [G,,F,]3 [G,,G,] | [C,G,]6 z [C,C] | [C,C]2 [C,G,]2 [C,G,]3 [E,G,] | %5
 [F,A,]2 [F,A,]2 [F,A,]3 [E,G,] | [D,G,]2 [B,,G,]2 [G,,F,]2 (D,E,) | [C,E,]6 z [G,,G,] | %8
 [G,,G,]2 [G,,G,]2 [G,,G,]3 [G,,G,] | [G,,B,]2 [G,,B,]2 [C,C]3 [C,G,] | %10
 [D,G,]2 [D,B,]2 [D,D]3 [^F,C] | [G,B,]6 z [G,B,] | [C,C]2 [C,G,]2 [C,G,]3 [E,G,] | %13
 [F,A,]2 [F,A,]2 [F,A,]3 [E,G,] | [D,G,]2 [B,,G,]2 [G,,F,]2 (D,E,) | [C,E,]6 z2 |] %16
V:4
 x8 | x8 | x8 | x8 | x8 | x8 | x6 G,,2 | x8 | x8 | x8 | x8 | x8 | x8 | x8 | x6 G,,2 | x8 |] %16

